places/scalable/folder-green-visiting.svg

<?xml version="1.0" standalone="no"?><!-- Generator: Gravit.io -->
<svg xmlns="http://www.w3.org/2000/svg" 
  xmlns:xlink="http://www.w3.org/1999/xlink" style="isolation:isolate" viewBox="0 0 256 256" width="256" height="256">
  <g id="folder">
    <path d=" M 53.705469 21 C 17.390414 21 13.666667 23.055089 13.666667 59.371035 L 13.666667 111.538229 L 243.666667 111.538229 L 243.666667 79.563042 C 243.666667 43.247098 239.942918 37.460768 203.627861 37.460768 L 114.291921 37.460768 L 97.864201 21 L 53.705469 21 Z " id="orange" fill="#28851E"/>
    <path d=" M 53.705469 70.384311 C 17.388415 70.384311 13.666667 74.113541 13.666667 110.429488 L 13.666667 194.952819 C 13.666667 231.268759 17.388415 235 53.705469 235 L 203.627861 235 C 239.944918 235 243.666667 231.268759 243.666667 194.952819 L 243.666667 93.968715 C 243.666667 57.652775 239.944918 53.921534 203.627861 53.921534 L 120.196686 53.921534 L 103.758968 70.384311 L 53.705469 70.384311 Z " id="change-color-easy" fill="#76C22B"/>
    <path d=" M 243.666667 98 L 210.209302 98 L 210.209302 98 L 210.209302 98 L 210.209302 98 L 210.209302 98 L 210.209302 98 L 210.209302 98 L 210.209302 98 L 210.209302 144 L 210.209302 144 L 243.666667 144 L 243.666667 98 Z  M 13.911423 98 L 13.911423 98 L 38.731432 98 L 38.731432 70.783638 C 19.72102 72.149631 14.930638 77.740736 13.911423 98 Z  M 167.418605 53.921534 L 167.418605 53.921534 L 167.418605 98 L 167.418605 98 L 210.209302 98 L 210.209302 53.974975 C 208.144015 53.936824 205.952726 53.921534 203.627861 53.921534 L 167.418605 53.921534 Z  M 81.837209 70.384311 L 81.837209 70.384311 L 81.837209 98 L 124.627907 98 L 124.627907 53.921534 L 120.196686 53.921534 L 103.758968 70.384311 L 81.837209 70.384311 Z  M 13.666667 190 L 13.666667 190 L 39.046512 190 L 39.046512 144 L 13.666667 144 L 13.666667 190 Z  M 167.418605 235 L 167.418605 190 L 124.627907 190 L 124.627907 190 L 124.627907 190 L 124.627907 190 L 124.627907 235 L 167.418605 235 Z  M 81.837209 235 L 81.837209 190 L 39.046512 190 L 39.046512 190 L 39.046512 190 L 39.046512 234.622708 C 43.219971 234.910166 48.070335 235 53.705469 235 L 81.837209 235 Z  M 243.666667 190 L 210.209302 190 L 210.209302 190 L 210.209302 234.946559 C 240.406167 234.388751 243.666667 228.943965 243.666667 194.952819 L 243.666667 190 Z  M 81.837209 144 L 81.837209 144 L 124.627907 144 L 124.627907 144 L 124.627907 190 L 81.837209 190 L 81.837209 144 L 81.837209 144 L 81.837209 144 L 81.837209 144 L 81.837209 144 L 81.837209 144 L 81.837209 144 Z  M 124.627907 98 L 167.418605 98 L 167.418605 98 L 167.418605 144 L 124.627907 144 L 124.627907 144 L 124.627907 98 L 124.627907 98 L 124.627907 98 L 124.627907 98 L 124.627907 98 L 124.627907 98 L 124.627907 98 L 124.627907 98 L 124.627907 98 L 124.627907 98 Z  M 39.046512 98 L 81.837209 98 L 81.837209 144 L 81.837209 144 L 39.046512 144 L 39.046512 98 L 39.046512 98 L 39.046512 98 L 39.046512 98 L 39.046512 98 L 39.046512 98 L 39.046512 98 L 39.046512 98 L 39.046512 98 Z  M 167.418605 144 L 210.209302 144 L 210.209302 144 L 210.209302 190 L 167.418605 190 L 167.418605 144 L 167.418605 144 L 167.418605 144 L 167.418605 144 L 167.418605 144 Z " fill-rule="evenodd" id="tiles" fill="#FFFFFF" fill-opacity="0.6"/>
    <linearGradient id="_lgradient_1" x1="0" y1="0.5" x2="2.83276944882399e-16" y2="-0.5" gradientTransform="matrix(230,0,0,181.078466,13.666667,53.921534)" gradientUnits="userSpaceOnUse">
      <stop offset="0%" stop-opacity="0.07" style="stop-color:rgb(255,255,255)"/>
      <stop offset="67.28219512106674%" stop-opacity="0" style="stop-color:rgb(252,239,232)"/>
    </linearGradient>
    <path d=" M 53.705469 70.384311 C 17.388415 70.384311 13.666667 74.113541 13.666667 110.429488 L 13.666667 194.952819 C 13.666667 231.268759 17.388415 235 53.705469 235 L 203.627861 235 C 239.944918 235 243.666667 231.268759 243.666667 194.952819 L 243.666667 93.968715 C 243.666667 57.652775 239.944918 53.921534 203.627861 53.921534 L 120.196686 53.921534 L 103.758968 70.384311 L 53.705469 70.384311 Z " id="gradient white" fill="url(#_lgradient_1)"/>
    <g opacity="0.4">
      <radialGradient id="_rgradient_2" fx="0.5000000213726793" fy="0.13577386516315215" cx="0.5" cy="0.5" r="0.27154159375000003" gradientTransform="matrix(230,0,0,60.620138,13.666667,21)" gradientUnits="userSpaceOnUse">
        <stop offset="0%" stop-opacity="1" style="stop-color:rgb(255,255,255)"/>
        <stop offset="100%" stop-opacity="0.20392157" style="stop-color:rgb(255,255,255)"/>
      </radialGradient>
      <path d=" M 53.705469 21 C 17.390414 21 13.666667 23.055089 13.666667 59.371035 L 13.666667 61.430128 C 13.666667 25.114188 17.390414 23.057095 53.705469 23.057095 L 97.864201 23.057095 L 114.291921 39.517861 L 203.627861 39.517861 C 239.942918 39.517861 243.666667 45.304195 243.666667 81.620138 L 243.666667 79.563042 C 243.666667 43.247098 239.942918 37.460768 203.627861 37.460768 L 114.291921 37.460768 L 97.864201 21 L 53.705469 21 Z " id="white" fill="url(#_rgradient_2)"/>
    </g>
    <g opacity="0.4">
      <radialGradient id="_rgradient_3" fx="0.48214287810452355" fy="0.2108154047287485" cx="0.5" cy="0.5" r="0.27154159375" gradientTransform="matrix(230,0,0,58.565044,13.666667,53.921534)" gradientUnits="userSpaceOnUse">
        <stop offset="0%" stop-opacity="1" style="stop-color:rgb(255,255,255)"/>
        <stop offset="100%" stop-opacity="0.20392157" style="stop-color:rgb(255,255,255)"/>
      </radialGradient>
      <path d=" M 120.196686 53.921534 L 103.758968 70.384311 L 53.705469 70.384311 C 17.390414 70.384311 13.666667 74.111537 13.666667 110.427484 L 13.666667 112.486577 C 13.666667 76.170637 17.390414 72.4414 53.705469 72.4414 L 103.758968 72.4414 L 120.196686 55.980634 L 203.627861 55.980634 C 239.942918 55.980634 243.666667 59.707868 243.666667 96.023808 L 243.666667 93.966711 C 243.666667 57.650771 239.942918 53.921534 203.627861 53.921534 L 120.196686 53.921534 Z " id="white" fill="url(#_rgradient_3)"/>
    </g>
    <g opacity="0.1">
      <path d=" M 243.666667 167.095832 L 177.951803 232.940899 L 203.627861 232.940899 C 239.942918 232.940899 243.666667 229.213666 243.666667 192.897726 L 243.666667 167.095832 Z " id="white" fill="rgb(255,255,255)"/>
    </g>
    <g opacity="0.2">
      <path d=" M 13.666667 192.897726 L 13.666667 194.954823 C 13.666667 231.270763 17.390414 235 53.705469 235 L 203.627861 235 C 239.942918 235 243.666667 231.270763 243.666667 194.954823 L 243.666667 192.897726 C 243.666667 229.213666 239.942918 232.940899 203.627861 232.940899 L 53.705469 232.940899 C 17.390414 232.940899 13.666667 229.213666 13.666667 192.897726 Z " id="dark" fill="rgb(0,0,0)"/>
    </g>
  </g>
</svg>

<svg xmlns="http://www.w3.org/2000/svg" style="isolation:isolate" width="256" height="256"><path d="M53.705 21c-36.315 0-40.038 2.055-40.038 38.371v52.167h230V79.563c0-36.316-3.724-42.102-40.04-42.102h-89.335L97.864 21H53.705z" fill="#28851E"/><path d="M53.705 70.384c-36.317 0-40.038 3.73-40.038 40.045v84.524c0 36.316 3.721 40.047 40.038 40.047h149.923c36.317 0 40.039-3.731 40.039-40.047V93.969c0-36.316-3.722-40.047-40.04-40.047h-83.43l-16.438 16.462H53.705z" fill="#76C22B"/><path d="M243.667 98h-33.458v46h33.458V98zM13.91 98h24.82V70.784C19.721 72.15 14.931 77.74 13.911 98zM167.42 53.922V98h42.79V53.975a358.371 358.371 0 0 0-6.581-.053h-36.21zM81.837 70.384V98h42.79V53.922h-4.43l-16.438 16.462H81.837zM13.667 190h25.38v-46h-25.38v46zm153.752 45v-45h-42.791v45h42.79zm-85.582 0v-45h-42.79v44.623c4.173.287 9.023.377 14.658.377h28.132zm161.83-45h-33.458v44.947c30.197-.558 33.458-6.003 33.458-39.994V190zm-161.83-46h42.79v46h-42.79v-46zm42.79-46h42.792v46h-42.791V98zm-85.58 0h42.79v46h-42.79V98zm128.372 46h42.79v46h-42.79v-46z" fill-rule="evenodd" fill="#FFF" fill-opacity=".6"/><linearGradient id="a" y1=".5" x2="0" y2="-.5" gradientTransform="matrix(230 0 0 181.07847 13.667 53.922)" gradientUnits="userSpaceOnUse"><stop offset="0%" stop-opacity=".07" stop-color="#fff"/><stop offset="67.282%" stop-opacity="0" stop-color="#fcefe8"/></linearGradient><path d="M53.705 70.384c-36.317 0-40.038 3.73-40.038 40.045v84.524c0 36.316 3.721 40.047 40.038 40.047h149.923c36.317 0 40.039-3.731 40.039-40.047V93.969c0-36.316-3.722-40.047-40.04-40.047h-83.43l-16.438 16.462H53.705z" fill="url(#a)"/><g opacity=".4"><radialGradient id="b" fx=".5" fy=".136" cx=".5" cy=".5" r=".272" gradientTransform="matrix(230 0 0 60.62014 13.667 21)" gradientUnits="userSpaceOnUse"><stop offset="0%" stop-color="#fff"/><stop offset="100%" stop-opacity=".204" stop-color="#fff"/></radialGradient><path d="M53.705 21c-36.315 0-40.038 2.055-40.038 38.371v2.06c0-36.317 3.723-38.374 40.038-38.374h44.16l16.427 16.46h89.336c36.315 0 40.039 5.787 40.039 42.103v-2.057c0-36.316-3.724-42.102-40.04-42.102h-89.335L97.864 21H53.705z" fill="url(#b)"/></g><g opacity=".4"><radialGradient id="c" fx=".482" fy=".211" cx=".5" cy=".5" r=".272" gradientTransform="matrix(230 0 0 58.56504 13.667 53.922)" gradientUnits="userSpaceOnUse"><stop offset="0%" stop-color="#fff"/><stop offset="100%" stop-opacity=".204" stop-color="#fff"/></radialGradient><path d="M120.197 53.922l-16.438 16.462H53.705c-36.315 0-40.038 3.728-40.038 40.043v2.06c0-36.316 3.723-40.046 40.038-40.046h50.054l16.438-16.46h83.43c36.316 0 40.04 3.727 40.04 40.043v-2.057c0-36.316-3.724-40.045-40.04-40.045h-83.43z" fill="url(#c)"/></g><path d="M243.667 167.096l-65.715 65.845h25.676c36.315 0 40.039-3.727 40.039-40.043v-25.802z" fill="#FFF" opacity=".1"/><path d="M13.667 192.898v2.057C13.667 231.27 17.39 235 53.705 235h149.923c36.315 0 40.039-3.73 40.039-40.045v-2.057c0 36.316-3.724 40.043-40.04 40.043H53.706c-36.315 0-40.038-3.727-40.038-40.043z" opacity=".2"/></svg>
